_includes/icons/ios-us-dollar.svg

<svg fill="#666" height="50" viewBox="0 0 50 50" width="50" xmlns="http://www.w3.org/2000/svg"><path d="m25 2c-12.690705 0-23 10.309295-23 23s10.309295 23 23 23 23-10.309295 23-23-10.309295-23-23-23zm0 2c11.609824 0 21 9.390176 21 21s-9.390176 21-21 21-21-9.390176-21-21 9.390176-21 21-21zm-1 6v2.800781c-5.6.3-6.550781 4.498438-6.550781 6.398438 0 9.4 13.701172 4.4 13.701172 11.5 0 .9-.19961 4.90039-6.09961 4.90039-.2 0-6.301562.001172-6.101562-6.298828h-2.09961c.2 6.7 4.450391 7.598438 7.150391 7.898438v2.800781h2v-2.800781c6.7-.5 7.150391-5.5 7.150391-6.5 0-9-13.701172-4.398828-13.701172-11.298828 0-2.3.901562-5 5.601562-5 4.8 0 5.4 3.8 5.5 5.5h2.09961c.2-2.8-1.79961-6.89961-6.59961-7.09961v-2.800781z"/></svg>

<svg xmlns="http://www.w3.org/2000/svg" viewBox="0 0 50 50" width="50" height="50" fill="#666"><path d="M 25 2 C 12.309295 2 2 12.309295 2 25 C 2 37.690705 12.309295 48 25 48 C 37.690705 48 48 37.690705 48 25 C 48 12.309295 37.690705 2 25 2 z M 25 4 C 36.609824 4 46 13.390176 46 25 C 46 36.609824 36.609824 46 25 46 C 13.390176 46 4 36.609824 4 25 C 4 13.390176 13.390176 4 25 4 z M 24 10 L 24 12.800781 C 18.4 13.100781 17.449219 17.299219 17.449219 19.199219 C 17.449219 28.599219 31.150391 23.599219 31.150391 30.699219 C 31.150391 31.599219 30.950781 35.599609 25.050781 35.599609 C 24.850781 35.599609 18.749219 35.600781 18.949219 29.300781 L 16.849609 29.300781 C 17.049609 36.000781 21.3 36.899219 24 37.199219 L 24 40 L 26 40 L 26 37.199219 C 32.7 36.699219 33.150391 31.699219 33.150391 30.699219 C 33.150391 21.699219 19.449219 26.300391 19.449219 19.400391 C 19.449219 17.100391 20.350781 14.400391 25.050781 14.400391 C 29.850781 14.400391 30.450781 18.200391 30.550781 19.900391 L 32.650391 19.900391 C 32.850391 17.100391 30.850781 13.000781 26.050781 12.800781 L 26.050781 10 L 24 10 z"/></svg>
